images/pricing-page-images/plus_circle.svg

<svg xmlns="http://www.w3.org/2000/svg" width="24" height="24" fill="none">
  <path fill="#02897A" fill-rule="evenodd" d="M0 12C0 5.376 5.376 0 12 0s12 5.376 12 12-5.376 12-12 12S0 18.624 0 12Zm13.2 1.2H18v-2.4h-4.8V6h-2.4v4.8H6v2.4h4.8V18h2.4v-4.8Z" clip-rule="evenodd"/>
</svg>

<svg width="24" height="24" viewBox="0 0 24 24" fill="none" xmlns="http://www.w3.org/2000/svg">
<path fill-rule="evenodd" clip-rule="evenodd" d="M0 12C0 5.376 5.376 0 12 0C18.624 0 24 5.376 24 12C24 18.624 18.624 24 12 24C5.376 24 0 18.624 0 12ZM13.2 13.2H18V10.8H13.2V6H10.8V10.8H6V13.2H10.8V18H13.2V13.2Z" fill="#02897A"/>
</svg>
